X:1
T:Title
%%score { ( 1 3 ) | 2 }
L:1/8
M:4/4
K:D
V:1 treble nm="Grand Piano"
V:3 treble 
V:2 bass 
V:1
 z4 z2[Q:1/4=100] D>E | F2 F2 F2 [EG]2 | [FA]2 [FA]4 D>D | B2 A2 F2 D2 | E6 A>B | %5
 c2 c2 [DB]2 [CA]2 |[M:3/4] A2 d4 |[M:1/4] D>E |[M:4/4] F2 F2 E2 D2 |[M:3/4] [CA]6 | %10
[M:1/4] [CA]>[EG] |[M:4/4] [DF]6[K:bass] z2 | [F,D]6[K:treble] [A,DF]>[A,EG] | [DFA]4 [EGc]4 | %14
[M:3/4] [DFd]6 |] %15
V:2
 z4 z2 [D,F,]>[D,G,D] | [D,A,D]2 [D,A,D]2 [D,A,D]2 [D,A,]2 | [D,A,]2 [D,D]4 [D,F,]>[D,F,] | %3
 [D,G,D]2 [D,F,D]2 [D,A,D]2 [F,A,]2 | [A,C]6 [A,C]>[A,D] | [A,E]2 [A,E]2 [A,,A,]2 [A,,G,]2 | %6
[M:3/4] [D,F,D]2 [D,F,D]4 |[M:1/4] [D,F,]>[D,G,D] |[M:4/4] [D,A,D]2 [D,A,D]2 [C,A,]2 [B,,^G,B,]2 | %9
[M:3/4] [A,,A,]6 |[M:1/4] [A,,A,]>[A,,A,] |[M:4/4] [D,A,]2 D,2 D,2 A,,2 | D,6 D,>D, | D,4 A,,4 | %14
[M:3/4] D,6 |] %15
V:3
 x8 | x8 | x8 | x8 | x8 | x8 |[M:3/4] x6 |[M:1/4] x2 |[M:4/4] x8 |[M:3/4] x6 |[M:1/4] x2 | %11
[M:4/4] z2[K:bass] A,2 A,2 [G,CE]2 | x6[K:treble] x2 | x8 |[M:3/4] x6 |] %15

